archdroid-icon-theme/Archdroid-Yellow/actions/scalable/document-revert.svg

<?xml version="1.0" encoding="UTF-8" standalone="no"?>
<svg
   xmlns:dc="http://purl.org/dc/elements/1.1/"
   xmlns:cc="http://creativecommons.org/ns#"
   xmlns:rdf="http://www.w3.org/1999/02/22-rdf-syntax-ns#"
   xmlns:svg="http://www.w3.org/2000/svg"
   xmlns="http://www.w3.org/2000/svg"
   xmlns:sodipodi="http://sodipodi.sourceforge.net/DTD/sodipodi-0.dtd"
   xmlns:inkscape="http://www.inkscape.org/namespaces/inkscape"
   fill="#FFEB3B"
   width="48"
   height="48"
   viewBox="0 0 48 48"
   id="svg2"
   version="1.1"
   inkscape:version="0.91 r13725"
   sodipodi:docname="document-revert.svg">
  <metadata
     id="metadata10">
    <rdf:RDF>
      <cc:Work
         rdf:about="">
        <dc:format>image/svg+xml</dc:format>
        <dc:type
           rdf:resource="http://purl.org/dc/dcmitype/StillImage" />
        <dc:title />
      </cc:Work>
    </rdf:RDF>
  </metadata>
  <defs
     id="defs8" />
  <sodipodi:namedview
     pagecolor="#ffffff"
     bordercolor="#666666"
     borderopacity="1"
     objecttolerance="10"
     gridtolerance="10"
     guidetolerance="10"
     inkscape:pageopacity="0"
     inkscape:pageshadow="2"
     inkscape:window-width="1366"
     inkscape:window-height="713"
     id="namedview6"
     showgrid="false"
     inkscape:snap-bbox="true"
     inkscape:bbox-paths="true"
     inkscape:bbox-nodes="true"
     inkscape:snap-bbox-midpoints="true"
     inkscape:zoom="5.5120444203125"
     inkscape:cx="-7.597125837325933"
     inkscape:cy="8.808298296935963"
     inkscape:window-x="0"
     inkscape:window-y="30"
     inkscape:window-maximized="1"
     inkscape:current-layer="svg2" />
  <path
     d="M 12 4 C 9.789999999999999 4 8.019531349999999 5.790000000000001 8.01953125 8 L 8 40 C 8 42.21 9.77046835 44 11.98046875 44 L 36 44 C 38.21 44 40 42.21 40 40 L 40 16 L 28 4 L 12 4 z M 26 7 L 37 18 L 26 18 L 26 7 z M 14 27 L 17.599609375 30.599609375 C 19.444609375 28.98460937499999 21.855 28 24.5 28 C 29.15 28 33.0859375 31.030703125 34.4609375 35.220703125 L 32.095703125 36 C 31.045703125 32.80499999999999 28.045 30.5 24.5 30.5 C 22.54499999999999 30.5 20.769765625 31.219765625 19.384765625 32.384765625 L 23 36 L 14 36 L 14 27 z "
     id="path4165" />
</svg>

<svg xmlns="http://www.w3.org/2000/svg" fill="#FFEB3B" viewBox="0 0 48 48"><path d="m12 4c-2.21 0-3.98 1.79-3.98 4l-.02 32c0 2.21 1.77 4 3.98 4h24.02c2.21 0 4-1.79 4-4v-24l-12-12h-16m14 3l11 11h-11v-11m-12 20l3.6 3.6c1.845-1.615 4.255-2.6 6.9-2.6 4.65 0 8.586 3.03 9.961 7.221l-2.365.779c-1.05-3.195-4.051-5.5-7.596-5.5-1.955 0-3.73.72-5.115 1.885l3.615 3.615h-9v-9"/></svg>
